X:1
T:La bergère aux champs
C:trad.
L:1/8
Q:1/4=120
M:6/8
I:linebreak $
K:G
V:1 treble 
V:1
 D | G3 ABA | G- G3 z B | d3 cBA | G4 z2 | GBd d2 c |[M:3/8] BGA |[M:6/8] B3 dcB | A4 z2 | %9
 GBd d2 c |$[M:3/8] BGA |[M:6/8] B3 dBA | G6 :| %13
